packages/admin/admin-icons/icons/domain-locked.svg

<svg xmlns="http://www.w3.org/2000/svg" width="16" height="16" viewBox="0 0 16 16"><path fill="#0F0F0F" fill-rule="evenodd" d="M7,2 C7.27614237,2 7.5,2.22385763 7.5,2.5 C7.5,2.77614237 7.27614237,3 7,3 C6.2098879,3 5.41980997,4.3114914 5.01942175,6.2496469 L6.5,6.25 C6.77614237,6.25 7,6.47385763 7,6.75 C7,6.99545989 6.82312484,7.19960837 6.58987563,7.24194433 L6.5,7.25 L4.85569468,7.24993689 C4.787515,7.80252235 4.75,8.38988991 4.75,9 C4.75,9.61048008 4.78756051,10.19819 4.85581875,10.7510684 L13.1,10.75 C13.3761424,10.75 13.6,10.9738576 13.6,11.25 C13.6,11.3066446 13.5742126,11.4051478 13.5226377,11.5455095 C12.4822045,14.2096871 9.90843888,16 7,16 C3.13400675,16 0,12.8659932 0,9 C0,5.13400675 3.13400675,2 7,2 Z M8.98203284,11.751424 L5.01962885,11.7513554 C5.42008236,13.6889607 6.2100241,15 7,15 C7.74947926,15 8.57010296,13.7405194 8.98203284,11.751424 Z M1.66638417,11.7509215 C2.37087124,13.1140511 3.58258044,14.1725193 5.05182296,14.6766371 C4.58061248,13.9355988 4.21752524,12.924345 3.99598989,11.7512648 L1.66638417,11.7509215 Z M10.0018219,11.7501144 C9.77812724,12.9322591 9.41770964,13.9385481 8.95192818,14.6747555 C10.4036778,14.1752498 11.6216612,13.1314412 12.3339449,11.7510937 L10.0018219,11.7501144 Z M3.84617,7.24973113 L1.25919708,7.25007018 C1.09065361,7.80369768 1,8.3912622 1,9 C1,9.60910518 1.09076306,10.1970115 1.25950231,10.7509321 L3.84628263,10.7512681 C3.78308286,10.1907103 3.75,9.60373332 3.75,9 C3.75,8.54746905 3.768587,8.10435234 3.80451197,7.67471913 L3.84617,7.24973113 Z M12.5,0 C13.8807119,0 15,1.11928813 15,2.5 L15.5,2.5 C15.7454599,2.5 15.9496084,2.67687516 15.9919443,2.91012437 L16,3 L16,5.5 C16,5.77614237 15.7761424,6 15.5,6 C15.2545401,6 15.0503916,5.82312484 15.0080557,5.58987563 L15,5.5 L15,3.5 L10,3.5 L10,7.5 L15.5,7.5 C15.7454599,7.5 15.9496084,7.67687516 15.9919443,7.91012437 L16,8 C16,8.24545989 15.8231248,8.44960837 15.5898756,8.49194433 L15.5,8.5 L9.5,8.5 C9.25454011,8.5 9.05039163,8.32312484 9.00805567,8.08987563 L9,8 L9,3 C9,2.75454011 9.17687516,2.55039163 9.41012437,2.50805567 L9.5,2.5 L10,2.5 C10,1.11928813 11.1192881,0 12.5,0 Z M5.05206698,3.32308737 L4.86204674,3.39209445 C3.47802817,3.92004358 2.33971935,4.94562134 1.66586533,6.25008265 L3.99580106,6.24973533 C4.21731889,5.07622972 4.58047851,4.06461188 5.05206698,3.32308737 Z M12.5,4.75 C12.9142136,4.75 13.25,5.08578644 13.25,5.5 C13.25,5.91421356 12.9142136,6.25 12.5,6.25 C12.0857864,6.25 11.75,5.91421356 11.75,5.5 C11.75,5.08578644 12.0857864,4.75 12.5,4.75 Z M12.5,1 C11.6715729,1 11,1.67157288 11,2.5 L14,2.5 C14,1.67157288 13.3284271,1 12.5,1 Z"/></svg>

<svg width="16" height="16" fill="none" viewBox="0 0 16 16">
  <path fill="#242424" fill-rule="evenodd" d="M7 2a.5.5 0 0 1 0 1c-.79 0-1.58 1.311-1.98 3.25H6.5a.5.5 0 0 1 .09.992l-.09.008H4.856a14.372 14.372 0 0 0 0 3.501l8.244-.001a.5.5 0 0 1 .5.5c0 .057-.026.155-.077.296A7.002 7.002 0 0 1 0 9a7 7 0 0 1 7-7Zm1.982 9.751H5.02C5.42 13.69 6.21 15 7 15c.75 0 1.57-1.26 1.982-3.249Zm-7.316 0a6.019 6.019 0 0 0 3.386 2.926c-.471-.741-.834-1.753-1.056-2.926h-2.33Zm8.336 0c-.224 1.181-.584 2.188-1.05 2.924a6.009 6.009 0 0 0 3.382-2.924h-2.332ZM3.846 7.25H1.26A6 6 0 0 0 1 9a6 6 0 0 0 .26 1.75l2.586.001a15.927 15.927 0 0 1-.042-3.077l.042-.424ZM12.5 0A2.5 2.5 0 0 1 15 2.5h.5a.5.5 0 0 1 .492.41L16 3v2.5a.5.5 0 0 1-.992.09L15 5.5v-2h-5v4h5.5a.5.5 0 0 1 .492.41L16 8a.5.5 0 0 1-.41.492l-.09.008h-6a.5.5 0 0 1-.492-.41L9 8V3a.5.5 0 0 1 .41-.492L9.5 2.5h.5A2.5 2.5 0 0 1 12.5 0ZM5.052 3.323l-.19.07A6.021 6.021 0 0 0 1.666 6.25h2.33c.221-1.174.584-2.185 1.056-2.927ZM12.5 4.75a.75.75 0 1 1 0 1.5.75.75 0 0 1 0-1.5Zm0-3.75A1.5 1.5 0 0 0 11 2.5h3A1.5 1.5 0 0 0 12.5 1Z" clip-rule="evenodd"/>
</svg>
